icons/System/thumb-up-line.svg

<svg viewBox="0 0 24 24" xmlns="http://www.w3.org/2000/svg"><path d="M14.5998 8.00033H21C22.1046 8.00033 23 8.89576 23 10.0003V12.1047C23 12.3659 22.9488 12.6246 22.8494 12.8662L19.755 20.3811C19.6007 20.7558 19.2355 21.0003 18.8303 21.0003H2C1.44772 21.0003 1 20.5526 1 20.0003V10.0003C1 9.44804 1.44772 9.00033 2 9.00033H5.48184C5.80677 9.00033 6.11143 8.84246 6.29881 8.57701L11.7522 0.851355C11.8947 0.649486 12.1633 0.581978 12.3843 0.692483L14.1984 1.59951C15.25 2.12534 15.7931 3.31292 15.5031 4.45235L14.5998 8.00033ZM7 10.5878V19.0003H18.1606L21 12.1047V10.0003H14.5998C13.2951 10.0003 12.3398 8.77128 12.6616 7.50691L13.5649 3.95894C13.6229 3.73105 13.5143 3.49353 13.3039 3.38837L12.6428 3.0578L7.93275 9.73038C7.68285 10.0844 7.36341 10.3746 7 10.5878ZM5 11.0003H3V19.0003H5V11.0003Z"/></svg>

<svg xmlns="http://www.w3.org/2000/svg" viewBox="0 0 24 24">
    <g>
        <path fill="none" d="M0 0h24v24H0z"/>
        <path d="M14.6 8H21a2 2 0 0 1 2 2v2.104a2 2 0 0 1-.15.762l-3.095 7.515a1 1 0 0 1-.925.619H2a1 1 0 0 1-1-1V10a1 1 0 0 1 1-1h3.482a1 1 0 0 0 .817-.423L11.752.85a.5.5 0 0 1 .632-.159l1.814.907a2.5 2.5 0 0 1 1.305 2.853L14.6 8zM7 10.588V19h11.16L21 12.104V10h-6.4a2 2 0 0 1-1.938-2.493l.903-3.548a.5.5 0 0 0-.261-.571l-.661-.33-4.71 6.672c-.25.354-.57.644-.933.858zM5 11H3v8h2v-8z"/>
    </g>
</svg>
